resources/images/param_rectilinear.svg

<svg width="24" height="24" viewBox="0 0 24 24" fill="none" xmlns="http://www.w3.org/2000/svg">
<path opacity="0.75" d="M15.5 22.5L1.5 8.5M22.5 15.5L8.5 1.5M8.5 22.5L1.5 15.5M22.5 8.5L15.5 1.5M2.086 2.086L21.914 21.914" stroke="#949494" stroke-linecap="round" stroke-linejoin="round"/>
<path d="M8.5 22.5L22.5 8.5M1.5 15.5L15.5 1.5M15.5 22.5L22.5 15.5M1.5 8.5L8.5 1.5M21.914 2.086L2.086 21.914" stroke="#FF7C3F" stroke-linecap="round" stroke-linejoin="round"/>
<path d="M3.5 1.5H20.5C21.0304 1.5 21.5391 1.71071 21.9142 2.08579C22.2893 2.46086 22.5 2.96957 22.5 3.5V20.5C22.5 21.0304 22.2893 21.5391 21.9142 21.9142C21.5391 22.2893 21.0304 22.5 20.5 22.5H3.5C2.96957 22.5 2.46086 22.2893 2.08579 21.9142C1.71071 21.5391 1.5 21.0304 1.5 20.5V3.5C1.5 2.96957 1.71071 2.46086 2.08579 2.08579C2.46086 1.71071 2.96957 1.5 3.5 1.5Z" stroke="#949494" stroke-linecap="round" stroke-linejoin="round"/>
</svg>

<svg xmlns="http://www.w3.org/2000/svg" width="24" height="24" viewBox="0 0 24 24"><path d="M15.5,22.5l-14-14m21,7-14-14m0,21-7-7m21-7-7-7M2.086,2.086,21.914,21.914" style="fill:none;stroke:#949494;stroke-linecap:round;stroke-linejoin:round;opacity:0.75"/><path d="M8.5,22.5l14-14m-21,7,14-14m0,21,7-7m-21-7,7-7m13.414.586L2.086,21.914" style="fill:none;stroke:#009688;stroke-linecap:round;stroke-linejoin:round"/><path d="M3.5,1.5h17a2,2,0,0,1,2,2v17a2,2,0,0,1-2,2H3.5a2,2,0,0,1-2-2V3.5A2,2,0,0,1,3.5,1.5Z" style="fill:none;stroke:#949494;stroke-linecap:round;stroke-linejoin:round"/></svg>
